X:1
T:In the Twinkling of an Eye
T:In the Twinkling of an Eye
T:William James Kirkpatrick
T:Frances Jane (Fanny) Crosby, 1898
T:Public Domain Courtesy of the Cyber Hymnal™
T:Public Domain Courtesy of the Cyber Hymnal™
C:William James Kirkpatrick
Z:Public Domain
Z:Courtesy of the Cyber Hymnal™
%%score ( 1 2 ) ( 3 4 )
L:1/8
Q:1/4=110
M:4/4
K:C
V:1 treble 
V:2 treble 
V:3 bass 
V:4 bass 
V:1
 G>G | [Ec]2 [CE]>[DF] [EG]2 [FA]2 | [EG]4 [CE]2 C2 | [CE]2 [CE]2 [B,D]2 C2 | [B,G]6 G>G | %5
w: 1.~When the|trump of the great arch-|an- gel Its|might- y tones shall|sound, And, the|
w: 2.~When He|comes in the clouds de-|scend- ing, And|they who loved Him|here, From their|
w: 3.~O the|seed that was sown in|weak- ness Shall|then be raised in|pow’r And the|
 [FB]2 [FB]>[FB] [FA]2 [FB]2 | [Ec]4 [EG]2 [EG]2 | [Gc]2 [Gc]2 [FB]2 [Ec]2 | [Gd]6 [Ge]>[Fd] | %9
w: end of the age pro-|claim- ing, Shall|pierce the depths pro-|found; When the|
w: graves shall a- wake and|praise Him With|joy and not with|fear; When the|
w: songs of the blood bought|mil- lions Shall|hail that bliss- ful|hour; When we|
 [Ec]>[Ec] [Ec]>[GB] [FA]2 [Ac]>[FA] | [EG]4 [CE]2 [CG]2 | [B,F]2 [B,F]2 [B,G]2 [B,F]2 | %12
w: Son of Man shall come in His|glo- ry To|take the saints on|
w: bod- y and the soul are u-|nit- ed, And|clothed no more to|
w: ga- ther safe- ly home in the|morn- ing, And|night’s dark sha- dows|
 [CE]6 [CE]>[DF] | [EG]>[EG] [Ec]>[Fd] [Ge]2 [Ge]>[Fd] | [Gc]>[Gc] [Gc]>[GB] [FA]4 | %15
w: high, What a|shout- ing in the skies from the|mul- ti- tudes that rise,|
w: die, What a|shout- ing there will be when each|o- ther’s face we see,|
w: fly, What a|shout- ing on the shore when we|meet to part no more,|
 [EG]2 [EG]>[EG] [FB][FB][FA][FB] | [Ec]6 z2 ||"^Refrain" [EG]2 [EG]>[EG] [Ec][Ec] [Ec]>[EB] | %18
w: Changed in the twink- ling of an|eye.|Changed in the twink- ling of an|
w: Changed in the twink- ling of an|eye.||
w: Changed in the twink- ling of an|eye.||
 [FA]4- [FA]3 z | [^FA]2 [FA]>[FA] [Fd][Fd] [Fd]>[Fc] | [GB]4- [GB]3 G | %21
w: eye, *|Changed in the twink- ling of an|eye, * The|
w: |||
w: |||
 [Ge]2 [Ec]>[Ec] [Ge]3 [Gc] | [Fd]2 [FA]>[FA] [Fd]4 | [FG]2 [FG]>[FG] [FB][FB][FA][FB] | %24
w: trum- pet shall sound, the|dead shall be raised,|Changed in the twink- ling of an|
w: |||
w: |||
 c4- [Ec]2 |] %25
w: eye. *|
w: |
w: |
V:2
 G>G | x8 | x6 C2 | x6 C2 | x6 G>G | x8 | x8 | x8 | x8 | x8 | x8 | x8 | x8 | x8 | x8 | x8 | x8 || %17
 x8 | x8 | x8 | x7 G | x8 | x8 | x8 | EEF>F x2 |] %25
V:3
 G,>G, | [C,G,]2 [C,G,]>[C,G,] [C,C]2 [C,C]2 | [C,C]4 [C,G,]2 [C,E,]2 | %3
w: ~ ~|~ ~ ~ ~ ~|~ ~ ~|
 [C,G,]2 [C,G,]2 [C,F,]2 [C,E,]2 | [G,,D,]6 G,>G, | [G,D]2 [G,D]>[G,D] [G,C]2 [G,D]2 | %6
w: ~ ~ ~ ~|~ ~ ~|~ ~ ~ ~ ~|
 [C,C]4 [C,C]2 [C,C]2 | [E,G,]2 [E,G,]2 [D,G,]2 (G,C) | [G,B,]6 G,>G, | %9
w: ~ ~ ~|~ ~ ~ ~ *|~ ~ ~|
 [C,G,]>[C,G,] [C,G,]>[C,C] [F,C]2 [F,C]>[F,C] | [C,C]4 [C,G,]2 [E,G,]2 | %11
w: ~ ~ ~ ~ ~ ~ ~|~ ~ ~|
 [D,G,]2 [D,G,]2 [G,,G,]2 [G,,G,]2 | [C,G,]6 [C,G,]>[C,G,] | %13
w: ~ ~ ~ ~|~ ~ ~|
 [C,C]>[C,C] [C,G,]>[C,G,] [C,C]2 [C,C]>[D,B,] | [E,C]>[E,C] [E,C]>[E,C] [F,C]4 | %15
w: ~ ~ ~ ~ ~ ~ ~|~ ~ ~ ~ ~|
 [G,C]2 [G,C]>[G,C] [G,D][G,D]G,G, | [C,G,]6 z2 || [C,C]2 z2 [C,G,]2 [C,G,]>[C,C] | %18
w: ~ ~ ~ ~ ~ ~ ~|~|~ Changed, changed in|
 [F,C][F,C] [F,C]>[F,C] [F,C]3 z | [D,D]2 z2 [D,A,]2 [D,A,]>[D,D] | %20
w: the twink- ling of an|eye, Changed, changed in|
 [G,D][G,D] [G,D]>[G,D] [G,D]3 G, | C2 [C,G,]>[C,G,] C3 [E,G,] | [F,A,]2 [F,D]>[F,D] [F,A,]4 | %23
w: the twink- ling of an eye,|~ ~ ~ ~ ~|~ ~ ~ ~|
 [G,B,]2 [G,B,]>[G,B,] [G,D][G,D][G,D][G,D] | CG, A,>A, [C,G,]2 |] %25
w: ~ ~ ~ ~ ~ in the|twink- ling of an~eye. *|
V:4
 G,>G, | x8 | x8 | x8 | x6 G,>G, | x8 | x8 | x6 C,2 | x6 G,>G, | x8 | x8 | x8 | x8 | x8 | x8 | %15
 x6 G,G, | x8 || x8 | x8 | x8 | x7 G, | C2 C3 x3 | x8 | x8 | C,4- x2 |] %25

